svg/icon/btcp.svg

<svg xmlns="http://www.w3.org/2000/svg" xmlns:xlink="http://www.w3.org/1999/xlink" width="32" height="32" viewBox="0 0 32 32"><defs><linearGradient id="btcp-c" x1="50%" x2="50%" y1="0%" y2="100%"><stop offset="0%" stop-color="#FFF" stop-opacity=".5"/><stop offset="100%" stop-opacity=".5"/></linearGradient><circle id="btcp-b" cx="16" cy="15" r="15"/><filter id="btcp-a" width="111.7%" height="111.7%" x="-5.8%" y="-4.2%" filterUnits="objectBoundingBox"><feOffset dy=".5" in="SourceAlpha" result="shadowOffsetOuter1"/><feGaussianBlur in="shadowOffsetOuter1" result="shadowBlurOuter1" stdDeviation=".5"/><feComposite in="shadowBlurOuter1" in2="SourceAlpha" operator="out" result="shadowBlurOuter1"/><feColorMatrix in="shadowBlurOuter1" values="0 0 0 0 0 0 0 0 0 0 0 0 0 0 0 0 0 0 0.199473505 0"/></filter><path id="btcp-e" d="M20.2150538,6.19947849 L19.5155703,9.04172099 C21.6787877,9.79791395 23.2720556,10.9322034 22.961174,13.0312907 C22.8705003,13.6701434 22.6502925,14.3089961 22.1969236,14.791395 C21.8083217,15.208605 21.199512,15.4302477 20.6813761,15.5997392 C20.0725664,15.8083442 19.3989897,15.9256845 18.7513199,15.9387223 C18.3109044,15.9387223 17.8834422,15.9256845 17.4430267,15.8865711 C16.7305899,15.8344198 16.0051996,15.7692308 15.3057162,15.6127771 C15.0855084,15.5606258 14.878254,15.5215124 14.6839531,15.4693611 L13.7383551,19.2894394 L13.181359,21.3754889 L12.4818755,24.2307692 L10.7590737,23.8005215 L11.4715105,20.9191656 C11.0699552,20.8148631 10.6554465,20.6975228 10.2409378,20.5932203 L8,20.0325945 L8.85492423,18.0638853 C8.85492423,18.0638853 10.1243572,18.4028683 10.1114038,18.3767927 C10.6036329,18.494133 10.8108872,18.1681877 10.901561,17.9595828 L11.8730658,14.0482399 L12.3264347,12.2359844 L12.8445706,10.1499348 C12.8704774,9.78487614 12.7409435,9.31551499 12.04146,9.14602347 C12.0673668,9.13298566 10.7849804,8.83311604 10.7849804,8.83311604 L11.2383494,6.98174707 L13.6088211,7.58148631 C13.9715162,7.67275098 14.3342113,7.75097784 14.7098599,7.8422425 L15.4093433,5 L17.1321452,5.43024772 L16.4456151,8.22033898 C16.898984,8.32464146 17.3653063,8.42894394 17.8186753,8.54628422 L18.4922519,5.76923077 L20.2150538,6.19947849 Z M20.0725664,16.4993481 C20.5518421,16.4211213 21.134745,16.2255541 21.5492537,16.0560626 C21.5622071,16.0430248 21.5881139,16.0430248 21.6010673,16.029987 C22.4948517,16.8252934 22.9223138,18.1160365 22.339411,19.7718383 C21.4197197,22.4576271 19.2046888,22.6792699 16.277221,22.1186441 L15.5647841,25 L13.8549356,24.5697523 L14.5155589,21.8187744 L14.5414657,21.7275098 L15.0596016,19.6153846 C16.5881025,19.9543677 18.6476927,20.1760104 19.0362946,18.5853977 C19.243549,17.73794 18.8419937,17.125163 18.1943238,16.6818774 C18.4274849,16.6688396 18.6476927,16.6558018 18.8679004,16.642764 C19.3471762,16.6166884 19.5932907,16.577575 20.0725664,16.4993481 Z M19.5673839,13.0052151 C20.0725664,10.958279 16.9378442,10.5149935 15.9663394,10.2542373 L15.1114152,13.7222947 C16.08292,13.970013 19.0881082,14.9608866 19.5673839,13.0052151 Z"/><filter id="btcp-d" width="123.3%" height="117.5%" x="-11.7%" y="-6.2%" filterUnits="objectBoundingBox"><feOffset dy=".5" in="SourceAlpha" result="shadowOffsetOuter1"/><feGaussianBlur in="shadowOffsetOuter1" result="shadowBlurOuter1" stdDeviation=".5"/><feColorMatrix in="shadowBlurOuter1" values="0 0 0 0 0 0 0 0 0 0 0 0 0 0 0 0 0 0 0.204257246 0"/></filter></defs><g fill="none" fill-rule="evenodd"><use fill="#000" filter="url(#btcp-a)" xlink:href="#btcp-b"/><use fill="#272D63" xlink:href="#btcp-b"/><use fill="url(#btcp-c)" style="mix-blend-mode:soft-light" xlink:href="#btcp-b"/><circle cx="16" cy="15" r="14.5" stroke="#000" stroke-opacity=".097"/><g fill-rule="nonzero"><use fill="#000" filter="url(#btcp-d)" xlink:href="#btcp-e"/><use fill="#FFF" fill-rule="evenodd" xlink:href="#btcp-e"/></g></g></svg>

<svg xmlns="http://www.w3.org/2000/svg" xmlns:xlink="http://www.w3.org/1999/xlink" width="32" height="32" viewBox="0 0 32 32"><defs><linearGradient id="c" x1="50%" x2="50%" y1="0%" y2="100%"><stop offset="0%" stop-color="#FFF" stop-opacity=".5"/><stop offset="100%" stop-opacity=".5"/></linearGradient><circle id="b" cx="16" cy="15" r="15"/><filter id="a" width="111.7%" height="111.7%" x="-5.8%" y="-4.2%" filterUnits="objectBoundingBox"><feOffset dy=".5" in="SourceAlpha" result="shadowOffsetOuter1"/><feGaussianBlur in="shadowOffsetOuter1" result="shadowBlurOuter1" stdDeviation=".5"/><feComposite in="shadowBlurOuter1" in2="SourceAlpha" operator="out" result="shadowBlurOuter1"/><feColorMatrix in="shadowBlurOuter1" values="0 0 0 0 0 0 0 0 0 0 0 0 0 0 0 0 0 0 0.199473505 0"/></filter><path id="e" d="M20.215 6.2l-.7 2.842c2.164.756 3.757 1.89 3.446 3.99-.09.638-.31 1.277-.764 1.76-.389.417-.997.638-1.516.808a6.459 6.459 0 0 1-1.93.339c-.44 0-.868-.013-1.308-.052-.712-.053-1.438-.118-2.137-.274-.22-.052-.428-.091-.622-.144l-.946 3.82-.557 2.086-.7 2.856-1.722-.43.713-2.882c-.402-.104-.817-.221-1.231-.326L8 20.033l.855-1.97s1.27.34 1.256.314c.493.117.7-.209.79-.417l.972-3.912.453-1.812.519-2.086c.025-.365-.104-.834-.804-1.004.026-.013-1.256-.313-1.256-.313l.453-1.851 2.37.6c.364.09.726.169 1.102.26L15.41 5l1.722.43-.686 2.79c.453.105.92.209 1.373.326l.673-2.777 1.723.43zm-.142 10.3c.479-.079 1.062-.274 1.476-.444.013-.013.04-.013.052-.026.894.795 1.321 2.086.738 3.742-.92 2.686-3.134 2.907-6.062 2.347L15.565 25l-1.71-.43.66-2.751.026-.091.519-2.113c1.528.34 3.588.561 3.976-1.03.208-.847-.194-1.46-.842-1.903l.674-.04c.48-.025.725-.064 1.205-.143zm-.506-3.495c.506-2.047-2.63-2.49-3.6-2.75l-.856 3.467c.972.248 3.977 1.239 4.456-.717z"/><filter id="d" width="123.3%" height="117.5%" x="-11.7%" y="-6.2%" filterUnits="objectBoundingBox"><feOffset dy=".5" in="SourceAlpha" result="shadowOffsetOuter1"/><feGaussianBlur in="shadowOffsetOuter1" result="shadowBlurOuter1" stdDeviation=".5"/><feColorMatrix in="shadowBlurOuter1" values="0 0 0 0 0 0 0 0 0 0 0 0 0 0 0 0 0 0 0.204257246 0"/></filter></defs><g fill="none" fill-rule="evenodd"><use fill="#000" filter="url(#a)" xlink:href="#b"/><use fill="#272D63" xlink:href="#b"/><use fill="url(#c)" style="mix-blend-mode:soft-light" xlink:href="#b"/><circle cx="16" cy="15" r="14.5" stroke="#000" stroke-opacity=".097"/><g fill-rule="nonzero"><use fill="#000" filter="url(#d)" xlink:href="#e"/><use fill="#FFF" fill-rule="evenodd" xlink:href="#e"/></g></g></svg>
